; generated by PrusaSlicer 2.8.1+MacOS-x64 on 2024-10-11 at 16:03:27 UTC


;
;
; 

; external perimeters extrusion width = 0.45mm
; perimeters extrusion width = 0.45mm
; infill extrusion width = 0.45mm
; solid infill extrusion width = 0.45mm
; top infill extrusion width = 0.40mm
; support material extrusion width = 0.35mm
; first layer extrusion width = 0.42mm

; external perimeters extrusion width = 0.45mm
; perimeters extrusion width = 0.45mm
; infill extrusion width = 0.45mm
; solid infill extrusion width = 0.45mm
; top infill extrusion width = 0.40mm
; support material extrusion width = 0.35mm
; first layer extrusion width = 0.42mm

M73 P0 R156
M73 Q0 S157
M201 X1000 Y1000 Z200 E5000 ; sets maximum accelerations, mm/sec^2
M203 X200 Y200 Z12 E120 ; sets maximum feedrates, mm / sec
M204 S1250 T1250 ; sets acceleration (S) and retract acceleration (R), mm/sec^2
M205 X8.00 Y8.00 Z0.40 E4.50 ; sets the jerk limits, mm/sec
M205 S0 T0 ; sets the minimum extruding and travel feed rate, mm/sec

; printing object Magnificent Bruticus (1).stl id:0 copy 0
; stop printing object Magnificent Bruticus (1).stl id:0 copy 0

;TYPE:Custom
M862.3 P "MK3S" ; printer model check
M862.1 P0.4 ; nozzle diameter check
M115 U3.14.0 ; tell printer latest fw version
G90 ; use absolute coordinates
M83 ; extruder relative mode
M104 S215 ; set extruder temp
M140 S60 ; set bed temp
M190 S60 ; wait for bed temp
M109 S215 ; wait for extruder temp
G28 W ; home all without mesh bed level
G80 X87.9428 Y71.1281 W67.8363 H68.6457 ; mesh bed levelling

G1 Z0.2 F720
G1 Y-3 F1000 ; go outside print area
G92 E0
G1 X60 E9 F1000 ; intro line
G1 X100 E12.5 F1000 ; intro line
M73 P0 R155

G92 E0
M221 S95

; Don't change E values below. Excessive value can damage the printer.
M907 E430 ; set extruder motor current
G21 ; set units to millimeters
G90 ; use absolute coordinates
M83 ; use relative distances for extrusion

M900 K0.05 ; Filament gcode LA 1.5
M900 K30 ; Filament gcode LA 1.0




M107
;LAYER_CHANGE
;Z:0.2
;HEIGHT:0.2
G1 E-.8 F2100
G1 Z.6 F720
G1 X89.169 Y95.236 F10800
G1 Z.2 F720
G1 E.8 F2100
M204 S800
;TYPE:Skirt/Brim
;WIDTH:0.42
G1 F1200
G1 X91.225 Y93.964 E.07808
G1 X127.343 Y71.642 E1.37122
G1 X128.611 Y71.319 E.04226
G1 X129.472 Y71.547 E.02876
G1 X154.381 Y84.001 E.89938
G1 X155.322 Y84.908 E.04221
G1 X155.59 Y85.958 E.035
G1 X155.591 Y113.805 E.89932
G1 X155.2 Y115.054 E.04227
G1 X154.553 Y115.667 E.02878
G1 X116.379 Y139.259 E1.44926
G1 X115.111 Y139.583 E.04227
G1 X114.249 Y139.355 E.0288
G1 X89.341 Y126.901 E.89935
G1 X88.4 Y125.994 E.04221
G1 X88.131 Y124.944 E.035
G1 X88.131 Y97.097 E.89932
G1 X88.522 Y95.849 E.04224
G1 X89.125 Y95.277 E.02684
M204 S1000
;WIPE_START
G1 F8640
G1 X89.169 Y95.236 E-.01389
G1 X91.225 Y93.964 E-.55825
G1 X92.064 Y93.445 E-.22786
;WIPE_END
G1 Z.6 F720
; printing object Magnificent Bruticus (1).stl id:0 copy 0
G1 X130.185 Y74.35 F10800
G1 Z.2 F720
G1 E.8 F2100
M204 S800
;TYPE:Support material
G1 F1200
G1 X153.402 Y85.958 E.83828
G1 X153.402 Y113.805 E.89932
G1 X151.345 Y115.077 E.07811
G1 X150.652 Y115.261 E.02316
G1 X130.852 Y119.023 E.65088
G1 X129.979 Y119.562 E.03313
G1 X117.76 Y135.588 E.65083
G1 X117.286 Y136.126 E.02316
G1 X115.228 Y137.398 E.07813
G1 X90.32 Y124.944 E.89935
G1 X90.32 Y97.097 E.89932
G1 X92.376 Y95.825 E.07808
G1 X93.069 Y95.641 E.02316
G1 X112.87 Y91.879 E.65091
G1 X113.743 Y91.34 E.03313
G1 X126.436 Y74.776 E.67393
G1 X128.494 Y73.504 E.07813
G1 X130.134 Y74.324 E.05922
M204 S1000
G1 X130.134 Y74.324 F10800
G1 X121.849 Y98.97
M204 S800
G1 F1200
G1 X123.113 Y99.093 E.04101
G1 X124.329 Y99.459 E.04101
G1 X125.451 Y100.057 E.04106
G1 X126.434 Y100.861 E.04101
G1 X127.242 Y101.841 E.04102
G1 X127.843 Y102.96 E.04102
G1 X128.213 Y104.175 E.04102
G1 X128.341 Y105.439 E.04103
G1 X128.218 Y106.704 E.04105
G1 X127.852 Y107.92 E.04101
G1 X127.256 Y109.041 E.041
G1 X126.451 Y110.025 E.04106
G1 X125.47 Y110.832 E.04102
G1 X124.352 Y111.433 E.04099
G1 X123.136 Y111.804 E.04106
G1 X121.872 Y111.93 E.04102
G1 X120.608 Y111.808 E.04101
G1 X119.392 Y111.442 E.04101
G1 X118.27 Y110.845 E.04104
G1 X117.287 Y110.041 E.04101
G1 X116.479 Y109.061 E.04102
G1 X115.878 Y107.942 E.04102
G1 X115.507 Y106.727 E.04103
G1 X115.381 Y105.462 E.04106
G1 X115.503 Y104.199 E.04098
G1 X115.869 Y102.982 E.04104
G1 X116.466 Y101.86 E.04104
G1 X117.27 Y100.878 E.04099
G1 X118.251 Y100.07 E.04104
G1 X119.37 Y99.468 E.04104
G1 X120.585 Y99.098 E.04102
G1 X121.793 Y98.973 E.03922
M204 S1000
;WIPE_START
G1 F8640
G1 X120.585 Y99.098 E-.28042
G1 X119.37 Y99.468 E-.29327
G1 X118.507 Y99.932 E-.22631
;WIPE_END
G1 Z.6 F720
G1 X152.865 Y113.938 F10800
G1 Z.2 F720
G1 E.8 F2100
M204 S800
G1 F1200
G1 X152.865 Y86.069 E.90003
G1 X152.446 Y85.86 E.01512
G1 X152.446 Y113.997 E.90868
G1 X152.027 Y114.256 E.01591
G1 X152.027 Y85.65 E.92383
G1 X151.608 Y85.441 E.01512
G1 X151.608 Y114.515 E.93894
G1 X151.189 Y114.767 E.01579
G1 X151.189 Y85.231 E.95386
G1 X150.77 Y85.022 E.01512
G1 X150.77 Y114.878 E.9642
G1 X150.351 Y114.955 E.01376
G1 X150.351 Y84.812 E.97347
G1 X149.932 Y84.603 E.01512
G1 X149.932 Y115.038 E.9829
G1 X149.513 Y115.114 E.01375
G1 X149.513 Y84.393 E.99213
G1 X149.094 Y84.184 E.01512
G1 X149.094 Y115.192 E1.0014
G1 X148.675 Y115.272 E.01378
G1 X148.675 Y83.974 E1.01077
G1 X148.256 Y83.765 E.01512
G1 X148.256 Y115.357 E1.02026
G1 X147.838 Y115.435 E.01373
M73 Q0 S156
G1 X147.838 Y83.555 E1.02956
G1 X147.419 Y83.346 E.01512
G1 X147.419 Y115.513 E1.03883
G1 X147 Y115.59 E.01376
G1 X147 Y83.136 E1.0481
G1 X146.581 Y82.927 E.01512
G1 X146.581 Y115.676 E1.05763
G1 X146.162 Y115.756 E.01378
G1 X146.162 Y82.717 E1.06699
G1 X145.743 Y82.508 E.01512
G1 X145.743 Y115.833 E1.07623
G1 X145.324 Y115.911 E.01376
G1 X145.324 Y82.298 E1.08553
G1 X144.905 Y82.089 E.01512
G1 X144.905 Y115.994 E1.09496
G1 X144.486 Y116.076 E.01379
M73 P0 R154
G1 X144.486 Y81.879 E1.10439
G1 X144.067 Y81.67 E.01512
G1 X144.067 Y116.154 E1.11366
G1 X143.648 Y116.232 E.01376
G1 X143.648 Y81.46 E1.12296
G1 X143.229 Y81.251 E.01512
G1 X143.229 Y116.312 E1.13229
G1 X142.81 Y116.397 E.01381
G1 X142.81 Y81.041 E1.14182
G1 X142.391 Y80.832 E.01512
G1 X142.391 Y116.475 E1.15109
G1 X141.972 Y116.553 E.01376
G1 X141.972 Y80.623 E1.16036
G1 X141.553 Y80.413 E.01514
G1 X141.553 Y116.63 E1.16963
G1 X141.134 Y116.716 E.01381
G1 X141.134 Y80.204 E1.17915
G1 X140.715 Y79.994 E.01514
G1 X140.715 Y116.796 E1.18852
G1 X140.296 Y116.873 E.01376
G1 X140.296 Y79.785 E1.19775
G1 X139.877 Y79.575 E.01514
G1 X139.877 Y116.951 E1.20706
G1 X139.458 Y117.034 E.01379
G1 X139.458 Y79.366 E1.21649
G1 X139.039 Y79.156 E.01514
G1 X139.039 Y117.116 E1.22592
G1 X138.62 Y117.194 E.01376
G1 X138.62 Y78.947 E1.23518
G1 X138.201 Y78.737 E.01514
G1 X138.201 Y117.272 E1.24449
G1 X137.782 Y117.352 E.01378
G1 X137.782 Y78.528 E1.25382
G1 X137.363 Y78.318 E.01514
M73 P1 R154
M73 Q1 S156
G1 X137.363 Y117.437 E1.26335
G1 X136.944 Y117.515 E.01376
G1 X136.944 Y78.109 E1.27261
G1 X136.525 Y77.899 E.01514
G1 X136.525 Y117.593 E1.28191
G1 X136.106 Y117.671 E.01376
G1 X136.106 Y77.69 E1.29118
G1 X135.687 Y77.48 E.01514
G1 X135.687 Y117.756 E1.30071
G1 X135.268 Y117.835 E.01377
G1 X135.268 Y77.271 E1.31001
G1 X134.849 Y77.061 E.01514
G1 X134.849 Y117.913 E1.31931
G1 X134.43 Y117.991 E.01376
M73 Q1 S155
G1 X134.43 Y76.852 E1.32858
G1 X134.011 Y76.642 E.01514
G1 X134.011 Y118.075 E1.33808
G1 X133.592 Y118.156 E.01378
G1 X133.592 Y76.433 E1.34744
G1 X133.173 Y76.223 E.01514
G1 X133.173 Y118.234 E1.35674
G1 X132.754 Y118.312 E.01376
G1 X132.754 Y76.014 E1.36601
G1 X132.335 Y75.804 E.01514
G1 X132.335 Y118.393 E1.37541
G1 X131.916 Y118.477 E.0138
G1 X131.916 Y75.595 E1.38487
G1 X131.497 Y75.385 E.01514
M73 P1 R153
G1 X131.497 Y118.555 E1.39417
G1 X131.078 Y118.632 E.01376
G1 X131.078 Y75.176 E1.40341
G1 X130.659 Y74.966 E.01514
G1 X130.659 Y118.743 E1.41378
G1 X130.24 Y119.002 E.01591
G1 X130.24 Y74.757 E1.42889
G1 X129.822 Y74.547 E.01511
G1 X129.821 Y119.261 E1.44404
G1 X129.403 Y119.759 E.021
G1 X129.403 Y74.338 E1.46687
G1 X128.984 Y74.128 E.01514
G1 X128.984 Y120.308 E1.49138
G1 X128.565 Y120.856 E.02228
G1 X128.565 Y73.919 E1.51583
G1 X128.511 Y73.892 E.00195
G1 X128.146 Y74.118 E.01386
G1 X128.146 Y102.806 E.92648
G1 X127.727 Y101.987 E.02971
G1 X127.727 Y74.377 E.89166
G1 X127.308 Y74.636 E.01591
G1 X127.308 Y101.359 E.86302
G1 X126.889 Y100.855 E.02117
G1 X126.889 Y74.895 E.83838
G1 X126.47 Y75.251 E.01776
G1 X126.47 Y100.435 E.81332
G1 X126.051 Y100.077 E.0178
G1 X126.051 Y75.781 E.78464
G1 X125.632 Y76.331 E.02233
G1 X125.632 Y99.77 E.75696
G1 X125.213 Y99.518 E.01579
G1 X125.213 Y76.88 E.73109
G1 X124.794 Y77.428 E.02228
G1 X124.794 Y99.302 E.70642
G1 X124.375 Y99.115 E.01482
G1 X124.375 Y77.977 E.68265
G1 X123.956 Y78.525 E.02228
G1 X123.956 Y98.966 E.66014
G1 X123.537 Y98.848 E.01406
G1 X123.537 Y79.073 E.63863
G1 X123.118 Y79.622 E.0223
G1 X123.118 Y98.751 E.61777
G1 X122.699 Y98.688 E.01368
G1 X122.699 Y80.17 E.59804
G1 X122.28 Y80.718 E.02228
G1 X122.28 Y98.651 E.57914
G1 X121.861 Y98.631 E.01355
G1 X121.861 Y81.267 E.56077
G1 X121.442 Y81.815 E.02228
G1 X121.442 Y98.651 E.54372
G1 X121.023 Y98.688 E.01358
G1 X121.023 Y82.363 E.52721
G1 X120.604 Y82.912 E.0223
G1 X120.604 Y98.751 E.51152
G1 X120.185 Y98.848 E.01389
G1 X120.185 Y83.461 E.49692
G1 X119.766 Y84.009 E.02228
G1 X119.766 Y98.965 E.483
G1 X119.347 Y99.115 E.01437
G1 X119.347 Y84.558 E.47012
G1 X118.928 Y85.107 E.0223
G1 X118.928 Y99.302 E.45843
G1 X118.509 Y99.518 E.01522
G1 X118.509 Y85.656 E.44767
G1 X118.09 Y86.204 E.02228
G1 X118.09 Y99.769 E.43808
G1 X117.671 Y100.076 E.01678
G1 X117.671 Y86.753 E.43027
G1 X117.252 Y87.302 E.0223
G1 X117.252 Y100.434 E.4241
G1 X116.833 Y100.854 E.01916
M73 Q1 S154
G1 X116.833 Y87.85 E.41996
G1 X116.414 Y88.399 E.0223
G1 X116.414 Y101.359 E.41854
G1 X115.995 Y101.986 E.02435
G1 X115.995 Y88.948 E.42106
G1 X115.576 Y89.497 E.0223
G1 X115.576 Y103.297 E.44567
M204 S1000
;WIPE_START
G1 F8640
G1 X115.576 Y99.832 E-.8
;WIPE_END
G1 Z.6 F720
G1 X128.146 Y121.684 F10800
G1 Z.2 F720
G1 E.8 F2100
M204 S800
G1 F1200
G1 X128.146 Y108.096 E.43882
G1 X127.727 Y108.915 E.02971
G1 X127.727 Y121.954 E.42109
G1 X127.308 Y122.503 E.0223
G1 X127.308 Y109.543 E.41854
G1 X126.889 Y110.047 E.02117
G1 X126.889 Y123.051 E.41996
G1 X126.47 Y123.6 E.0223
G1 X126.47 Y110.467 E.42413
G1 X126.051 Y110.825 E.0178
G1 X126.051 Y124.149 E.4303
G1 X125.632 Y124.698 E.0223
G1 X125.632 Y111.132 E.43811
G1 X125.213 Y111.384 E.01579
G1 X125.213 Y125.246 E.44767
G1 X124.794 Y125.795 E.0223
G1 X124.794 Y111.599 E.45846
G1 X124.375 Y111.787 E.01483
G1 X124.375 Y126.344 E.47012
G1 X123.956 Y126.893 E.0223
G1 X123.956 Y111.936 E.48304
G1 X123.537 Y112.053 E.01405
G1 X123.537 Y127.441 E.49695
G1 X123.118 Y127.99 E.0223
G1 X123.118 Y112.151 E.51152
G1 X122.699 Y112.214 E.01368
M73 P1 R152
G1 X122.699 Y128.539 E.52721
G1 X122.28 Y129.087 E.02228
G1 X122.28 Y112.251 E.54372
G1 X121.861 Y112.27 E.01355
G1 X121.861 Y129.635 E.5608
G1 X121.442 Y130.184 E.0223
G1 X121.442 Y112.251 E.57914
G1 X121.023 Y112.214 E.01358
G1 X121.023 Y130.732 E.59804
G1 X120.604 Y131.28 E.02228
M73 P2 R152
G1 X120.604 Y112.151 E.61777
G1 X120.185 Y112.054 E.01389
M73 Q2 S154
G1 X120.185 Y131.829 E.63863
G1 X119.766 Y132.377 E.02228
G1 X119.766 Y111.936 E.66014
G1 X119.347 Y111.787 E.01436
G1 X119.347 Y132.925 E.68265
G1 X118.928 Y133.474 E.0223
G1 X118.928 Y111.6 E.70642
G1 X118.509 Y111.384 E.01522
G1 X118.509 Y134.022 E.73109
G1 X118.09 Y134.571 E.0223
G1 X118.09 Y111.133 E.75693
G1 X117.671 Y110.826 E.01678
G1 X117.671 Y135.121 E.78461
G1 X117.252 Y135.651 E.02182
G1 X117.252 Y110.468 E.81328
G1 X116.833 Y110.048 E.01916
G1 X116.833 Y136.007 E.83834
G1 X116.414 Y136.266 E.01591
G1 X116.414 Y109.543 E.86302
G1 X115.995 Y108.916 E.02435
G1 X115.995 Y136.525 E.89163
G1 X115.576 Y136.784 E.01591
G1 X115.576 Y107.605 E.94233
M204 S1000
G1 X115.576 Y107.605 F10800
G1 X115.157 Y137.173
M204 S800
G1 F1200
G1 X115.157 Y90.045 E1.522
G1 X114.738 Y90.594 E.0223
G1 X114.738 Y136.773 E1.49135
G1 X114.319 Y136.564 E.01512
G1 X114.319 Y91.143 E1.46687
G1 X113.9 Y91.641 E.02102
G1 X113.9 Y136.355 E1.44404
G1 X113.481 Y136.145 E.01514
G1 X113.481 Y91.9 E1.42889
G1 X113.062 Y92.159 E.01591
G1 X113.062 Y135.936 E1.41378
G1 X112.643 Y135.726 E.01514
G1 X112.643 Y92.269 E1.40344
G1 X112.224 Y92.347 E.01376
G1 X112.224 Y135.517 E1.39417
G1 X111.805 Y135.307 E.01514
G1 X111.805 Y92.425 E1.38487
G1 X111.387 Y92.509 E.01377
G1 X111.387 Y135.098 E1.37541
G1 X110.968 Y134.888 E.01514
G1 X110.968 Y92.59 E1.36601
G1 X110.549 Y92.668 E.01376
G1 X110.549 Y134.679 E1.35674
G1 X110.13 Y134.469 E.01514
M73 Q2 S153
G1 X110.13 Y92.746 E1.34744
G1 X109.711 Y92.827 E.01378
G1 X109.711 Y134.26 E1.33808
G1 X109.292 Y134.05 E.01514
G1 X109.292 Y92.911 E1.32858
G1 X108.873 Y92.989 E.01376
G1 X108.873 Y133.841 E1.31931
G1 X108.454 Y133.631 E.01514
G1 X108.454 Y93.066 E1.31004
G1 X108.035 Y93.146 E.01378
G1 X108.035 Y133.422 E1.30071
G1 X107.616 Y133.212 E.01514
M73 P2 R151
G1 X107.616 Y93.231 E1.29118
G1 X107.197 Y93.309 E.01376
G1 X107.197 Y133.003 E1.28191
G1 X106.778 Y132.793 E.01514
G1 X106.778 Y93.387 E1.27261
G1 X106.359 Y93.465 E.01376
G1 X106.359 Y132.584 E1.26335
G1 X105.94 Y132.374 E.01514
G1 X105.94 Y93.549 E1.25385
G1 X105.521 Y93.63 E.01378
G1 X105.521 Y132.165 E1.24449
G1 X105.102 Y131.955 E.01514
G1 X105.102 Y93.708 E1.23518
G1 X104.683 Y93.786 E.01376
G1 X104.683 Y131.746 E1.22592
G1 X104.264 Y131.536 E.01514
G1 X104.264 Y93.868 E1.21649
G1 X103.845 Y93.951 E.01379
G1 X103.845 Y131.327 E1.20706
G1 X103.426 Y131.117 E.01514
G1 X103.426 Y94.029 E1.19775
G1 X103.007 Y94.106 E.01376
G1 X103.007 Y130.908 E1.18852
G1 X102.588 Y130.698 E.01514
G1 X102.588 Y94.186 E1.17915
G1 X102.169 Y94.272 E.01381
G1 X102.169 Y130.489 E1.16963
G1 X101.75 Y130.279 E.01514
G1 X101.75 Y94.349 E1.16036
G1 X101.331 Y94.427 E.01376
G1 X101.331 Y130.07 E1.15109
G1 X100.912 Y129.86 E.01514
G1 X100.912 Y94.505 E1.14179
G1 X100.493 Y94.59 E.01381
G1 X100.493 Y129.651 E1.13229
G1 X100.074 Y129.441 E.01514
G1 X100.074 Y94.673 E1.12283
G1 X99.655 Y94.758 E.01381
G1 X99.655 Y129.232 E1.11334
G1 X99.236 Y129.022 E.01514
M73 P3 R151
G1 X99.236 Y94.826 E1.10436
G1 X98.817 Y94.908 E.01379
G1 X98.817 Y128.813 E1.09496
G1 X98.398 Y128.603 E.01514
M73 Q3 S153
G1 X98.398 Y94.991 E1.0855
G1 X97.979 Y95.069 E.01376
G1 X97.979 Y128.394 E1.07623
G1 X97.56 Y128.185 E.01512
G1 X97.56 Y95.146 E1.06699
G1 X97.141 Y95.226 E.01378
M73 Q3 S152
G1 X97.141 Y127.975 E1.05763
G1 X96.722 Y127.766 E.01512
G1 X96.722 Y95.312 E1.0481
G1 X96.303 Y95.389 E.01376
G1 X96.303 Y127.556 E1.03883
G1 X95.884 Y127.347 E.01512
G1 X95.884 Y95.478 E1.02921
G1 X95.465 Y95.555 E.01376
G1 X95.465 Y127.137 E1.01994
G1 X95.046 Y126.928 E.01512
G1 X95.046 Y95.63 E1.01077
G1 X94.627 Y95.71 E.01378
G1 X94.627 Y126.718 E1.0014
G1 X94.208 Y126.509 E.01512
G1 X94.208 Y95.788 E.99213
G1 X93.789 Y95.864 E.01375
M73 P3 R150
G1 X93.789 Y126.299 E.9829
G1 X93.37 Y126.09 E.01512
G1 X93.371 Y95.947 E.97347
G1 X92.952 Y96.024 E.01376
G1 X92.952 Y125.88 E.9642
G1 X92.533 Y125.671 E.01512
G1 X92.533 Y96.135 E.95386
G1 X92.114 Y96.387 E.01579
G1 X92.114 Y125.461 E.93894
G1 X91.695 Y125.252 E.01512
G1 X91.695 Y96.646 E.92383
G1 X91.276 Y96.905 E.01591
G1 X91.276 Y125.042 E.90868
G1 X90.857 Y124.833 E.01512
G1 X90.857 Y96.965 E.9
M204 S1000
;WIPE_START
G1 F8640
G1 X90.857 Y100.43 E-.8
;WIPE_END
G1 Z.6 F720
G1 X122.11 Y102.942 F10800
G1 Z.2 F720
G1 E.8 F2100
M204 S800
G1 F1200
G1 X123.06 Y103.229 E.03205
G1 X123.827 Y103.856 E.03199
G1 X124.294 Y104.727 E.03192
G1 X124.392 Y105.71 E.0319
G1 X124.103 Y106.655 E.03191
G1 X123.475 Y107.418 E.03191
G1 X122.6 Y107.884 E.03202
G1 X121.612 Y107.982 E.03206
G1 X120.662 Y107.694 E.03206
G1 X119.895 Y107.068 E.03197
G1 X119.428 Y106.196 E.03195
G1 X119.33 Y105.214 E.03187
G1 X119.619 Y104.268 E.03194
G1 X120.247 Y103.504 E.03194
G1 X121.122 Y103.038 E.03202
G1 X122.053 Y102.939 E.03024
M204 S1000
G1 X122.053 Y102.939 F10800
G1 X123.956 Y106.57
M204 S800
G1 F1200
G1 X123.956 Y104.789 E.05752
G1 X123.537 Y104.041 E.02769
